svgs/sharp-light/clock-three-thirty.svg

<svg xmlns="http://www.w3.org/2000/svg" viewBox="0 0 512 512"><!--! Font Awesome Pro 6.6.0 by @fontawesome - https://fontawesome.com License - https://fontawesome.com/license (Commercial License) Copyright 2024 Fonticons, Inc. --><path d="M32 256a224 224 0 1 0 448 0A224 224 0 1 0 32 256zm480 0A256 256 0 1 1 0 256a256 256 0 1 1 512 0zM240 400l0-144 0-16 16 0 112 0 16 0 0 32-16 0-96 0 0 128 0 16-32 0 0-16z"/></svg>

<svg xmlns="http://www.w3.org/2000/svg" viewBox="0 0 512 512"><!--! Font Awesome Pro 6.5.2 by @fontawesome - https://fontawesome.com License - https://fontawesome.com/license (Commercial License) Copyright 2024 Fonticons, Inc. --><path d="M32 256a224 224 0 1 0 448 0A224 224 0 1 0 32 256zm480 0A256 256 0 1 1 0 256a256 256 0 1 1 512 0zM240 400V256 240h16H368h16v32H368 272V400v16H240V400z"/></svg>
